exports/UN-population-projection-medium-variant_v2_850x600.svg

<svg xmlns="http://www.w3.org/2000/svg" version="1.1" style="background-color:#fff;-webkit-font-smoothing:antialiased" width="850" height="600" font-family="'Helvetica Neue',Helvetica,Arial,sans-serif" font-size="18" text-rendering="optimizeLegibility"><g class="ChartTab"><g class="HeaderView"><g opacity=".8" transform="matrix(.27 0 0 .27 778 15)"><a xmlns:xlink="http://www.w3.org/1999/xlink" xlink:href="https://ourworldindata.org" target="_blank"><g><path fill="#1B2543" d="M0 0h211.2v130.1H0z"/><path fill="#E63912" d="M0 112.2h211.2v17.9H0z"/><g><path fill="none" d="M1.2 12.3h210.2v99.2H1.2z"/><path fill="#FFF" d="M37.8 32.2c0 12.7-7.7 19.4-17.1 19.4-9.7 0-16.6-7.5-16.6-18.7 0-11.7 7.3-19.3 17.1-19.3 10.1.1 16.6 7.7 16.6 18.6zm-28.6.6c0 7.9 4.3 14.9 11.8 14.9 7.5 0 11.8-6.9 11.8-15.3 0-7.3-3.8-14.9-11.8-14.9-7.9 0-11.8 7.3-11.8 15.3zM62.7 43.8c0 2.7.1 5.1.2 7.2h-4.3l-.3-4.3h-.1c-1.3 2.1-4 4.9-8.8 4.9-4.2 0-9.1-2.3-9.1-11.6V24.6h4.8v14.6c0 5 1.5 8.4 5.9 8.4 3.2 0 5.5-2.2 6.3-4.4.3-.7.4-1.6.4-2.5V24.6h4.8v19.2zM67.3 32.8c0-3.1-.1-5.8-.2-8.2h4.2l.2 5.2h.2c1.2-3.5 4.1-5.8 7.3-5.8.5 0 .9.1 1.4.2v4.5c-.5-.1-1-.2-1.6-.2-3.4 0-5.8 2.6-6.5 6.2-.1.7-.2 1.4-.2 2.2V51h-4.8V32.8zM95.4 51L86 14.2h5l4.4 18.6c1.1 4.6 2.1 9.2 2.7 12.7h.1c.6-3.7 1.8-8 3-12.8l4.9-18.5h5l4.5 18.7c1 4.4 2 8.7 2.6 12.6h.1c.8-4 1.8-8.1 3-12.7l4.9-18.5h4.9L120.6 51h-5L111 31.9c-1.1-4.7-1.9-8.3-2.4-12h-.1c-.7 3.7-1.5 7.3-2.8 12L100.4 51h-5zM154.9 37.6c0 9.8-6.8 14-13.2 14-7.2 0-12.7-5.2-12.7-13.6 0-8.8 5.8-14 13.1-14 7.7 0 12.8 5.5 12.8 13.6zm-21 .3c0 5.8 3.3 10.1 8 10.1 4.6 0 8-4.3 8-10.3 0-4.5-2.2-10.1-7.9-10.1s-8.1 5.2-8.1 10.3zM158.2 32.8c0-3.1-.1-5.8-.2-8.2h4.2l.2 5.2h.2c1.2-3.5 4.1-5.8 7.3-5.8.5 0 .9.1 1.4.2v4.5c-.5-.1-1-.2-1.6-.2-3.4 0-5.8 2.6-6.5 6.2-.1.7-.2 1.4-.2 2.2V51h-4.8V32.8zM173.5 12.3h4.8V51h-4.8V12.3zM206.5 12.3v31.9c0 2.3.1 5 .2 6.8h-4.3l-.2-4.6h-.2c-1.5 2.9-4.7 5.2-9 5.2-6.4 0-11.3-5.4-11.3-13.4-.1-8.8 5.4-14.2 11.9-14.2 4 0 6.8 1.9 8 4h.1V12.3h4.8zm-4.8 23.1c0-.6-.1-1.4-.2-2a7 7 0 00-6.9-5.6c-5 0-7.9 4.4-7.9 10.2 0 5.3 2.6 9.8 7.8 9.8 3.2 0 6.2-2.1 7.1-5.7.2-.7.2-1.3.2-2.1v-4.6zM42.8 64c.1 1.6-1.1 2.9-3.1 2.9-1.7 0-2.9-1.3-2.9-2.9 0-1.7 1.3-3 3-3 1.9 0 3 1.3 3 3zm-5.4 33.8V71.4h4.8v26.4h-4.8zM47.5 78.6c0-2.7-.1-5-.2-7.1h4.3l.3 4.4h.1c1.3-2.5 4.4-5 8.8-5 3.7 0 9.4 2.2 9.4 11.2v15.8h-4.8V82.6c0-4.3-1.6-7.8-6.1-7.8-3.2 0-5.6 2.2-6.5 4.9-.2.6-.3 1.4-.3 2.2v15.9h-4.8V78.6zM84 61.6c2.9-.4 6.3-.8 10.1-.8 6.8 0 11.7 1.6 14.9 4.6 3.3 3 5.2 7.3 5.2 13.2 0 6-1.9 10.9-5.3 14.3-3.4 3.4-9.1 5.3-16.3 5.3-3.4 0-6.2-.2-8.6-.4V61.6zm4.8 32.5c1.2.2 3 .3 4.8.3 10.2 0 15.7-5.7 15.7-15.6.1-8.7-4.9-14.2-14.9-14.2-2.5 0-4.3.2-5.6.5v29zM132.1 97.8l-.4-3.3h-.2a9.79 9.79 0 01-8.1 3.9c-5.4 0-8.1-3.8-8.1-7.6 0-6.4 5.7-9.9 15.9-9.8v-.5c0-2.2-.6-6.1-6-6.1-2.5 0-5 .8-6.9 2l-1.1-3.2c2.2-1.4 5.4-2.3 8.7-2.3 8.1 0 10.1 5.5 10.1 10.8v9.9c0 2.3.1 4.5.4 6.3h-4.3zm-.7-13.4c-5.3-.1-11.2.8-11.2 5.9 0 3.1 2.1 4.6 4.5 4.6 3.4 0 5.6-2.2 6.4-4.4.2-.5.3-1 .3-1.5v-4.6zM146.6 63.9v7.6h6.9v3.7h-6.9v14.2c0 3.3.9 5.1 3.6 5.1 1.3 0 2.2-.2 2.8-.3l.2 3.6c-.9.4-2.4.7-4.3.7-2.2 0-4-.7-5.2-2-1.4-1.4-1.9-3.8-1.9-6.9V75.1h-4.1v-3.7h4.1v-6.3l4.8-1.2zM171.4 97.8l-.4-3.3h-.2a9.79 9.79 0 01-8.1 3.9c-5.4 0-8.1-3.8-8.1-7.6 0-6.4 5.7-9.9 15.9-9.8v-.5c0-2.2-.6-6.1-6-6.1-2.5 0-5 .8-6.9 2l-1.1-3.2c2.2-1.4 5.4-2.3 8.7-2.3 8.1 0 10.1 5.5 10.1 10.8v9.9c0 2.3.1 4.5.4 6.3h-4.3zm-.7-13.4c-5.3-.1-11.2.8-11.2 5.9 0 3.1 2.1 4.6 4.5 4.6 3.4 0 5.6-2.2 6.4-4.4.2-.5.3-1 .3-1.5v-4.6z"/></g></g></a></g><a href="https://ourworldindata.org/grapher/UN-population-projection-medium-variant" target="_blank"><text font-size="27" x="15" y="36.6" fill="#555"><tspan x="15" y="36.6">Population projection by the UN, World</tspan></text></a><text font-size="14.4" x="15" y="55.5" fill="#666"><tspan x="15" y="55.52">Shown is the total population since 1950 and the Medium Variant projections by the UN Population Division until</tspan><tspan x="15" y="71.36">2100.</tspan></text></g><g class="LineChart"><defs><clipPath id="a"><path d="M74.15 0h830v925.2h-830z"/></clipPath></defs><g class="AxisBoxView"><g class="HorizontalAxis" fill="#666" text-anchor="middle" font-size="16.2"><text x="84.2" y="556.5">1950</text><text x="128.3" y="556.5">1960</text><text x="216.5" y="556.5">1980</text><text x="304.7" y="556.5">2000</text><text x="392.9" y="556.5">2020</text><text x="481.1" y="556.5">2040</text><text x="569.3" y="556.5">2060</text><text x="657.6" y="556.5">2080</text><text x="745.8" y="556.5">2100</text></g><g class="VerticalAxis" fill="#666" dominant-baseline="middle" text-anchor="end" font-size="16.2"><text x="79.15" y="535.3">0</text><text x="79.15" y="456.4">2 billion</text><text x="79.15" y="377.4">4 billion</text><text x="79.15" y="298.5">6 billion</text><text x="79.15" y="219.6">8 billion</text><text x="79.15" y="140.6">10 billion</text></g><g class="AxisGridLines"><path stroke="#ccc" d="M84.15 535.3h661.63"/><path stroke="#ddd" stroke-dasharray="3,2" d="M84.15 456.4h661.63M84.15 377.4h661.63M84.15 298.5h661.63M84.15 219.6h661.63M84.15 140.6h661.63"/></g><g class="AxisGridLines" stroke="#ddd" stroke-dasharray="3,2"><path d="M128.3 535.3V93.9M216.5 535.3V93.9M304.7 535.3V93.9M392.9 535.3V93.9M481.1 535.3V93.9M569.3 535.3V93.9M657.6 535.3V93.9M745.8 535.3V93.9"/></g></g><g clip-path="url(#a)"><g class="HeightedLegend clickable"><g class="legendMark"><path fill="#ca2628" d="M755.78 92.65h10v2.5h-10z"/><text font-size="14.4" x="770.8" y="98.2" fill="#333"><tspan x="770.78" y="98.22">Projection</tspan></text></g></g><g class="Lines"><g class="key-World_0"><path stroke="#ca2628" stroke-linecap="round" d="M371 244l4-3 5-4 4-3 5-3 4-3 4-3 5-4 4-3 5-3 4-3 4-3 5-3 4-2 5-3 4-3 4-3 5-3 4-2 5-3 4-3 5-2 4-3 4-2 5-3 4-2 5-3 4-2 4-2 5-3 4-2 5-2 4-2 4-2 5-2 4-2 5-2 4-2 5-2 4-2 4-2 5-2 4-1 5-2 4-2 4-1 5-2 4-1 5-2 4-1 4-1 5-2 4-1 5-2 4-1 5-1 4-1 4-1 5-2 4-1 5-1 4-1 4-1 5-1 4-1 5-1 4-1 4-1h5l4-1 5-1 4-1 4-1h5l4-1 5-1h4l5-1 4-1h4l5-1h4l5-1h4l4-1h5" fill="none" stroke-width="1.5" stroke-dasharray="1,4"/></g><g class="key-World_1"><path stroke="#3360a9" stroke-linecap="round" d="M84 435l5-2 4-1 4-2 5-2 4-2 5-2 4-2 4-2 5-2 4-2 5-3 4-2 5-2 4-3 4-2 5-3 4-3 5-3 4-3 4-3 5-3 4-3 5-3 4-3 4-3 5-3 4-3 5-3 4-3 5-3 4-3 4-3 5-3 4-4 5-3 4-4 4-3 5-4 4-3 5-4 4-4 4-3 5-3 4-3 5-4 4-3 5-3 4-3 4-3 5-3 4-3 5-3 4-3 4-4 5-3 4-3 5-3 4-4 4-3 5-3 4-4 5-3 4-3 4-4 5-3" fill="none" stroke-width="1.5"/><g fill="#3360a9"><circle cx="84" cy="435" r="2"/><circle cx="89" cy="433" r="2"/><circle cx="93" cy="432" r="2"/><circle cx="97" cy="430" r="2"/><circle cx="102" cy="428" r="2"/><circle cx="106" cy="426" r="2"/><circle cx="111" cy="424" r="2"/><circle cx="115" cy="422" r="2"/><circle cx="119" cy="420" r="2"/><circle cx="124" cy="418" r="2"/><circle cx="128" cy="416" r="2"/><circle cx="133" cy="413" r="2"/><circle cx="137" cy="411" r="2"/><circle cx="142" cy="409" r="2"/><circle cx="146" cy="406" r="2"/><circle cx="150" cy="404" r="2"/><circle cx="155" cy="401" r="2"/><circle cx="159" cy="398" r="2"/><circle cx="164" cy="395" r="2"/><circle cx="168" cy="392" r="2"/><circle cx="172" cy="389" r="2"/><circle cx="177" cy="386" r="2"/><circle cx="181" cy="383" r="2"/><circle cx="186" cy="380" r="2"/><circle cx="190" cy="377" r="2"/><circle cx="194" cy="374" r="2"/><circle cx="199" cy="371" r="2"/><circle cx="203" cy="368" r="2"/><circle cx="208" cy="365" r="2"/><circle cx="212" cy="362" r="2"/><circle cx="217" cy="359" r="2"/><circle cx="221" cy="356" r="2"/><circle cx="225" cy="353" r="2"/><circle cx="230" cy="350" r="2"/><circle cx="234" cy="346" r="2"/><circle cx="239" cy="343" r="2"/><circle cx="243" cy="339" r="2"/><circle cx="247" cy="336" r="2"/><circle cx="252" cy="332" r="2"/><circle cx="256" cy="329" r="2"/><circle cx="261" cy="325" r="2"/><circle cx="265" cy="321" r="2"/><circle cx="269" cy="318" r="2"/><circle cx="274" cy="315" r="2"/><circle cx="278" cy="312" r="2"/><circle cx="283" cy="308" r="2"/><circle cx="287" cy="305" r="2"/><circle cx="292" cy="302" r="2"/><circle cx="296" cy="299" r="2"/><circle cx="300" cy="296" r="2"/><circle cx="305" cy="293" r="2"/><circle cx="309" cy="290" r="2"/><circle cx="314" cy="287" r="2"/><circle cx="318" cy="284" r="2"/><circle cx="322" cy="280" r="2"/><circle cx="327" cy="277" r="2"/><circle cx="331" cy="274" r="2"/><circle cx="336" cy="271" r="2"/><circle cx="340" cy="267" r="2"/><circle cx="344" cy="264" r="2"/><circle cx="349" cy="261" r="2"/><circle cx="353" cy="257" r="2"/><circle cx="358" cy="254" r="2"/><circle cx="362" cy="251" r="2"/><circle cx="366" cy="247" r="2"/><circle cx="371" cy="244" r="2"/></g></g></g></g></g><g class="SourcesFooter" fill="#777"><g class="clickable" fill="#777"><text font-size="12.6" x="15" y="581.6"><tspan x="15" y="581.58">Source: UN Population Division (2017 Revision)</tspan></text></g><text font-size="12.6" x="504.9" y="581.6"><tspan x="504.88" y="581.58"><a target="_blank" href="https://ourworldindata.org/future-population-growth/" fill="#777">OurWorldInData.org/future-population-growth/</a> • <a href="http://creativecommons.org/licenses/by-sa/4.0/deed.en_US" target="_blank" fill="#777">CC BY-SA</a></tspan></text></g></g></svg>

<svg xmlns="http://www.w3.org/2000/svg" version="1.1" style="font-family: 'Helvetica Neue', Helvetica, Arial, sans-serif; font-size: 18px; background-color: white; text-rendering: optimizeLegibility; -webkit-font-smoothing: antialiased;" width="850" height="600"><g class="ChartTab"><g class="HeaderView"><g opacity="0.8" transform="translate(778, 15) scale(0.27)"><a xmlns:xlink="http://www.w3.org/1999/xlink" xlink:href="https://ourworldindata.org" target="_blank"><g><rect x="0" y="0" fill="#1B2543" width="211.2" height="130.1"/><rect x="0" y="112.2" fill="#E63912" width="211.2" height="17.9"/><g><rect x="1.2" y="12.3" fill="none" width="210.2" height="99.2"/><path fill="#FFFFFF" d="M37.8,32.2c0,12.7-7.7,19.4-17.1,19.4c-9.7,0-16.6-7.5-16.6-18.7c0-11.7,7.3-19.3,17.1-19.3 C31.3,13.7,37.8,21.3,37.8,32.2z M9.2,32.8c0,7.9,4.3,14.9,11.8,14.9c7.5,0,11.8-6.9,11.8-15.3c0-7.3-3.8-14.9-11.8-14.9 C13.1,17.5,9.2,24.8,9.2,32.8z"/><path fill="#FFFFFF" d="M62.7,43.8c0,2.7,0.1,5.1,0.2,7.2h-4.3l-0.3-4.3h-0.1c-1.3,2.1-4,4.9-8.8,4.9c-4.2,0-9.1-2.3-9.1-11.6 V24.6h4.8v14.6c0,5,1.5,8.4,5.9,8.4c3.2,0,5.5-2.2,6.3-4.4c0.3-0.7,0.4-1.6,0.4-2.5V24.6h4.8V43.8z"/><path fill="#FFFFFF" d="M67.3,32.8c0-3.1-0.1-5.8-0.2-8.2h4.2l0.2,5.2h0.2c1.2-3.5,4.1-5.8,7.3-5.8c0.5,0,0.9,0.1,1.4,0.2v4.5 c-0.5-0.1-1-0.2-1.6-0.2c-3.4,0-5.8,2.6-6.5,6.2c-0.1,0.7-0.2,1.4-0.2,2.2V51h-4.8V32.8z"/><path fill="#FFFFFF" d="M95.4,51l-9.4-36.8h5l4.4,18.6c1.1,4.6,2.1,9.2,2.7,12.7h0.1c0.6-3.7,1.8-8,3-12.8l4.9-18.5h5l4.5,18.7 c1,4.4,2,8.7,2.6,12.6h0.1c0.8-4,1.8-8.1,3-12.7l4.9-18.5h4.9L120.6,51h-5L111,31.9c-1.1-4.7-1.9-8.3-2.4-12h-0.1 c-0.7,3.7-1.5,7.3-2.8,12L100.4,51H95.4z"/><path fill="#FFFFFF" d="M154.9,37.6c0,9.8-6.8,14-13.2,14c-7.2,0-12.7-5.2-12.7-13.6c0-8.8,5.8-14,13.1-14 C149.8,24,154.9,29.5,154.9,37.6z M133.9,37.9c0,5.8,3.3,10.1,8,10.1c4.6,0,8-4.3,8-10.3c0-4.5-2.2-10.1-7.9-10.1 C136.3,27.6,133.9,32.8,133.9,37.9z"/><path fill="#FFFFFF" d="M158.2,32.8c0-3.1-0.1-5.8-0.2-8.2h4.2l0.2,5.2h0.2c1.2-3.5,4.1-5.8,7.3-5.8c0.5,0,0.9,0.1,1.4,0.2v4.5 c-0.5-0.1-1-0.2-1.6-0.2c-3.4,0-5.8,2.6-6.5,6.2c-0.1,0.7-0.2,1.4-0.2,2.2V51h-4.8V32.8z"/><path fill="#FFFFFF" d="M173.5,12.3h4.8V51h-4.8V12.3z"/><path fill="#FFFFFF" d="M206.5,12.3v31.9c0,2.3,0.1,5,0.2,6.8h-4.3l-0.2-4.6H202c-1.5,2.9-4.7,5.2-9,5.2 c-6.4,0-11.3-5.4-11.3-13.4c-0.1-8.8,5.4-14.2,11.9-14.2c4,0,6.8,1.9,8,4h0.1V12.3H206.5z M201.7,35.4c0-0.6-0.1-1.4-0.2-2 c-0.7-3.1-3.3-5.6-6.9-5.6c-5,0-7.9,4.4-7.9,10.2c0,5.3,2.6,9.8,7.8,9.8c3.2,0,6.2-2.1,7.1-5.7c0.2-0.7,0.2-1.3,0.2-2.1V35.4z"/><path fill="#FFFFFF" d="M42.8,64c0.1,1.6-1.1,2.9-3.1,2.9c-1.7,0-2.9-1.3-2.9-2.9c0-1.7,1.3-3,3-3C41.7,61,42.8,62.3,42.8,64z M37.4,97.8V71.4h4.8v26.4H37.4z"/><path fill="#FFFFFF" d="M47.5,78.6c0-2.7-0.1-5-0.2-7.1h4.3l0.3,4.4h0.1c1.3-2.5,4.4-5,8.8-5c3.7,0,9.4,2.2,9.4,11.2v15.8h-4.8 V82.6c0-4.3-1.6-7.8-6.1-7.8c-3.2,0-5.6,2.2-6.5,4.9c-0.2,0.6-0.3,1.4-0.3,2.2v15.9h-4.8V78.6z"/><path fill="#FFFFFF" d="M84,61.6c2.9-0.4,6.3-0.8,10.1-0.8c6.8,0,11.7,1.6,14.9,4.6c3.3,3,5.2,7.3,5.2,13.2c0,6-1.9,10.9-5.3,14.3 c-3.4,3.4-9.1,5.3-16.3,5.3c-3.4,0-6.2-0.2-8.6-0.4V61.6z M88.8,94.1c1.2,0.2,3,0.3,4.8,0.3c10.2,0,15.7-5.7,15.7-15.6 c0.1-8.7-4.9-14.2-14.9-14.2c-2.5,0-4.3,0.2-5.6,0.5V94.1z"/><path fill="#FFFFFF" d="M132.1,97.8l-0.4-3.3h-0.2c-1.5,2.1-4.3,3.9-8.1,3.9c-5.4,0-8.1-3.8-8.1-7.6c0-6.4,5.7-9.9,15.9-9.8v-0.5 c0-2.2-0.6-6.1-6-6.1c-2.5,0-5,0.8-6.9,2l-1.1-3.2c2.2-1.4,5.4-2.3,8.7-2.3c8.1,0,10.1,5.5,10.1,10.8v9.9c0,2.3,0.1,4.5,0.4,6.3 H132.1z M131.4,84.4c-5.3-0.1-11.2,0.8-11.2,5.9c0,3.1,2.1,4.6,4.5,4.6c3.4,0,5.6-2.2,6.4-4.4c0.2-0.5,0.3-1,0.3-1.5V84.4z"/><path fill="#FFFFFF" d="M146.6,63.9v7.6h6.9v3.7h-6.9v14.2c0,3.3,0.9,5.1,3.6,5.1c1.3,0,2.2-0.2,2.8-0.3l0.2,3.6 c-0.9,0.4-2.4,0.7-4.3,0.7c-2.2,0-4-0.7-5.2-2c-1.4-1.4-1.9-3.8-1.9-6.9V75.1h-4.1v-3.7h4.1v-6.3L146.6,63.9z"/><path fill="#FFFFFF" d="M171.4,97.8l-0.4-3.3h-0.2c-1.5,2.1-4.3,3.9-8.1,3.9c-5.4,0-8.1-3.8-8.1-7.6c0-6.4,5.7-9.9,15.9-9.8v-0.5 c0-2.2-0.6-6.1-6-6.1c-2.5,0-5,0.8-6.9,2l-1.1-3.2c2.2-1.4,5.4-2.3,8.7-2.3c8.1,0,10.1,5.5,10.1,10.8v9.9c0,2.3,0.1,4.5,0.4,6.3 H171.4z M170.7,84.4c-5.3-0.1-11.2,0.8-11.2,5.9c0,3.1,2.1,4.6,4.5,4.6c3.4,0,5.6-2.2,6.4-4.4c0.2-0.5,0.3-1,0.3-1.5V84.4z"/></g></g></a></g><a href="https://ourworldindata.org/grapher/UN-population-projection-medium-variant" target="_blank"><text font-size="27.00" x="15.0" y="36.6" fill="#555"><tspan x="15" y="36.6">Population projection by the UN, World</tspan></text></a><text font-size="14.40" x="15.0" y="55.5" fill="#666"><tspan x="15" y="55.519999999999996">Shown is the total population since 1950 and the Medium Variant projections by the UN Population Division until</tspan><tspan x="15" y="71.36">2100.</tspan></text></g><g class="LineChart"><defs><clipPath id="boundsClip-1"><rect x="74.152" y="0" width="830" height="925.2"></rect></clipPath></defs><g class="AxisBoxView"><g class="HorizontalAxis"><text x="84.2" y="556.5" fill="#666" text-anchor="middle" font-size="16.2">1950</text><text x="128.3" y="556.5" fill="#666" text-anchor="middle" font-size="16.2">1960</text><text x="216.5" y="556.5" fill="#666" text-anchor="middle" font-size="16.2">1980</text><text x="304.7" y="556.5" fill="#666" text-anchor="middle" font-size="16.2">2000</text><text x="392.9" y="556.5" fill="#666" text-anchor="middle" font-size="16.2">2020</text><text x="481.1" y="556.5" fill="#666" text-anchor="middle" font-size="16.2">2040</text><text x="569.3" y="556.5" fill="#666" text-anchor="middle" font-size="16.2">2060</text><text x="657.6" y="556.5" fill="#666" text-anchor="middle" font-size="16.2">2080</text><text x="745.8" y="556.5" fill="#666" text-anchor="middle" font-size="16.2">2100</text></g><g class="VerticalAxis"><text x="79.15" y="535.3" fill="#666" dominant-baseline="middle" text-anchor="end" font-size="16.2">0</text><text x="79.15" y="456.4" fill="#666" dominant-baseline="middle" text-anchor="end" font-size="16.2">2 billion</text><text x="79.15" y="377.4" fill="#666" dominant-baseline="middle" text-anchor="end" font-size="16.2">4 billion</text><text x="79.15" y="298.5" fill="#666" dominant-baseline="middle" text-anchor="end" font-size="16.2">6 billion</text><text x="79.15" y="219.6" fill="#666" dominant-baseline="middle" text-anchor="end" font-size="16.2">8 billion</text><text x="79.15" y="140.6" fill="#666" dominant-baseline="middle" text-anchor="end" font-size="16.2">10 billion</text></g><g class="AxisGridLines"><line x1="84.15" y1="535.3" x2="745.78" y2="535.3" stroke="#ccc"></line><line x1="84.15" y1="456.4" x2="745.78" y2="456.4" stroke="#ddd" stroke-dasharray="3,2"></line><line x1="84.15" y1="377.4" x2="745.78" y2="377.4" stroke="#ddd" stroke-dasharray="3,2"></line><line x1="84.15" y1="298.5" x2="745.78" y2="298.5" stroke="#ddd" stroke-dasharray="3,2"></line><line x1="84.15" y1="219.6" x2="745.78" y2="219.6" stroke="#ddd" stroke-dasharray="3,2"></line><line x1="84.15" y1="140.6" x2="745.78" y2="140.6" stroke="#ddd" stroke-dasharray="3,2"></line></g><g class="AxisGridLines"><line x1="128.3" y1="535.30" x2="128.3" y2="93.90" stroke="#ddd" stroke-dasharray="3,2"></line><line x1="216.5" y1="535.30" x2="216.5" y2="93.90" stroke="#ddd" stroke-dasharray="3,2"></line><line x1="304.7" y1="535.30" x2="304.7" y2="93.90" stroke="#ddd" stroke-dasharray="3,2"></line><line x1="392.9" y1="535.30" x2="392.9" y2="93.90" stroke="#ddd" stroke-dasharray="3,2"></line><line x1="481.1" y1="535.30" x2="481.1" y2="93.90" stroke="#ddd" stroke-dasharray="3,2"></line><line x1="569.3" y1="535.30" x2="569.3" y2="93.90" stroke="#ddd" stroke-dasharray="3,2"></line><line x1="657.6" y1="535.30" x2="657.6" y2="93.90" stroke="#ddd" stroke-dasharray="3,2"></line><line x1="745.8" y1="535.30" x2="745.8" y2="93.90" stroke="#ddd" stroke-dasharray="3,2"></line></g></g><g clip-path="url(#boundsClip-1)"><g class="HeightedLegend clickable"><g class="legendMark"><rect x="755.776" y="86.7" width="79.224" height="14.4" fill="#fff" opacity="0"></rect><rect x="755.776" y="92.65" width="10" height="2.5" fill="#ca2628"></rect><text font-size="14.40" x="770.8" y="98.2" fill="#333"><tspan x="770.776" y="98.22000000000001">Projection</tspan></text></g></g><g class="Lines"><rect x="84" y="94" width="662" height="441" fill="rgba(255,255,255,0)" opacity="0"></rect><g class="key-World_0"><path stroke="#ca2628" stroke-linecap="round" d="M371 244L375 241L380 237L384 234L389 231L393 228L397 225L402 221L406 218L411 215L415 212L419 209L424 206L428 204L433 201L437 198L441 195L446 192L450 190L455 187L459 184L464 182L468 179L472 177L477 174L481 172L486 169L490 167L494 165L499 162L503 160L508 158L512 156L516 154L521 152L525 150L530 148L534 146L539 144L543 142L547 140L552 138L556 137L561 135L565 133L569 132L574 130L578 129L583 127L587 126L591 125L596 123L600 122L605 120L609 119L614 118L618 117L622 116L627 114L631 113L636 112L640 111L644 110L649 109L653 108L658 107L662 106L666 105L671 105L675 104L680 103L684 102L688 101L693 101L697 100L702 99L706 99L711 98L715 97L719 97L724 96L728 96L733 95L737 95L741 94L746 94" fill="none" stroke-width="1.5" stroke-dasharray="1,4"></path></g><g class="key-World_1"><path stroke="#3360a9" stroke-linecap="round" d="M84 435L89 433L93 432L97 430L102 428L106 426L111 424L115 422L119 420L124 418L128 416L133 413L137 411L142 409L146 406L150 404L155 401L159 398L164 395L168 392L172 389L177 386L181 383L186 380L190 377L194 374L199 371L203 368L208 365L212 362L217 359L221 356L225 353L230 350L234 346L239 343L243 339L247 336L252 332L256 329L261 325L265 321L269 318L274 315L278 312L283 308L287 305L292 302L296 299L300 296L305 293L309 290L314 287L318 284L322 280L327 277L331 274L336 271L340 267L344 264L349 261L353 257L358 254L362 251L366 247L371 244" fill="none" stroke-width="1.5"></path><g fill="#3360a9"><circle cx="84" cy="435" r="2"></circle><circle cx="89" cy="433" r="2"></circle><circle cx="93" cy="432" r="2"></circle><circle cx="97" cy="430" r="2"></circle><circle cx="102" cy="428" r="2"></circle><circle cx="106" cy="426" r="2"></circle><circle cx="111" cy="424" r="2"></circle><circle cx="115" cy="422" r="2"></circle><circle cx="119" cy="420" r="2"></circle><circle cx="124" cy="418" r="2"></circle><circle cx="128" cy="416" r="2"></circle><circle cx="133" cy="413" r="2"></circle><circle cx="137" cy="411" r="2"></circle><circle cx="142" cy="409" r="2"></circle><circle cx="146" cy="406" r="2"></circle><circle cx="150" cy="404" r="2"></circle><circle cx="155" cy="401" r="2"></circle><circle cx="159" cy="398" r="2"></circle><circle cx="164" cy="395" r="2"></circle><circle cx="168" cy="392" r="2"></circle><circle cx="172" cy="389" r="2"></circle><circle cx="177" cy="386" r="2"></circle><circle cx="181" cy="383" r="2"></circle><circle cx="186" cy="380" r="2"></circle><circle cx="190" cy="377" r="2"></circle><circle cx="194" cy="374" r="2"></circle><circle cx="199" cy="371" r="2"></circle><circle cx="203" cy="368" r="2"></circle><circle cx="208" cy="365" r="2"></circle><circle cx="212" cy="362" r="2"></circle><circle cx="217" cy="359" r="2"></circle><circle cx="221" cy="356" r="2"></circle><circle cx="225" cy="353" r="2"></circle><circle cx="230" cy="350" r="2"></circle><circle cx="234" cy="346" r="2"></circle><circle cx="239" cy="343" r="2"></circle><circle cx="243" cy="339" r="2"></circle><circle cx="247" cy="336" r="2"></circle><circle cx="252" cy="332" r="2"></circle><circle cx="256" cy="329" r="2"></circle><circle cx="261" cy="325" r="2"></circle><circle cx="265" cy="321" r="2"></circle><circle cx="269" cy="318" r="2"></circle><circle cx="274" cy="315" r="2"></circle><circle cx="278" cy="312" r="2"></circle><circle cx="283" cy="308" r="2"></circle><circle cx="287" cy="305" r="2"></circle><circle cx="292" cy="302" r="2"></circle><circle cx="296" cy="299" r="2"></circle><circle cx="300" cy="296" r="2"></circle><circle cx="305" cy="293" r="2"></circle><circle cx="309" cy="290" r="2"></circle><circle cx="314" cy="287" r="2"></circle><circle cx="318" cy="284" r="2"></circle><circle cx="322" cy="280" r="2"></circle><circle cx="327" cy="277" r="2"></circle><circle cx="331" cy="274" r="2"></circle><circle cx="336" cy="271" r="2"></circle><circle cx="340" cy="267" r="2"></circle><circle cx="344" cy="264" r="2"></circle><circle cx="349" cy="261" r="2"></circle><circle cx="353" cy="257" r="2"></circle><circle cx="358" cy="254" r="2"></circle><circle cx="362" cy="251" r="2"></circle><circle cx="366" cy="247" r="2"></circle><circle cx="371" cy="244" r="2"></circle></g></g></g></g></g><g style="fill: #777;" class="SourcesFooter"><g style="fill: #777;" class="clickable"><text font-size="12.60" x="15.0" y="581.6"><tspan x="15" y="581.58">Source: UN Population Division (2017 Revision)</tspan></text></g><text font-size="12.60" x="504.9" y="581.6"><tspan x="504.88" y="581.58"><a target='_blank' style='fill: #777;' href='https://ourworldindata.org/future-population-growth/'>OurWorldInData.org/future-population-growth/</a> • <a style="fill: #777;" href="http://creativecommons.org/licenses/by-sa/4.0/deed.en_US" target="_blank">CC BY-SA</a></tspan></text></g></g></svg>
